; generated by PrusaSlicer 2.8.1+win64 on 2024-11-25 at 11:50:14 UTC


;
;

;
;

;
;

;
;
; 

; external perimeters extrusion width = 0.45mm
; perimeters extrusion width = 0.45mm
; infill extrusion width = 0.45mm
; solid infill extrusion width = 0.45mm
; top infill extrusion width = 0.40mm
; support material extrusion width = 0.40mm
; first layer extrusion width = 0.70mm

M73 P0 R402
M73 Q0 S402
M201 X2500 Y2500 Z400 E5000 ; sets maximum accelerations, mm/sec^2
M203 X180 Y180 Z12 E80 ; sets maximum feedrates, mm / sec
M204 P2000 R1250 T2500 ; sets acceleration (P, T) and retract acceleration (R), mm/sec^2
M205 X8.00 Y8.00 Z2.00 E10.00 ; sets the jerk limits, mm/sec
M205 S0 T0 ; sets the minimum extruding and travel feed rate, mm/sec
;TYPE:Custom
M862.3 P "MINI" ; printer model check
G90 ; use absolute coordinates
M83 ; extruder relative mode
M104 S170 ; set extruder temp for bed leveling
M140 S60 ; set bed temp
M109 R170 ; wait for bed leveling temp
M190 S60 ; wait for bed temp
M204 T1250 ; set travel acceleration
G28 ; home all without mesh bed level
G29 ; mesh bed leveling 
M204 T2500 ; restore travel acceleration
M104 S215 ; set extruder temp
G92 E0
G1 Y-2 X179 F2400
G1 Z3 F720
M109 S215 ; wait for extruder temp

; intro line
G1 X170 F1000
G1 Z0.2 F720
G1 X110 E8 F900
G1 X40 E10 F700
G92 E0

M221 S95 ; set flow
G21 ; set units to millimeters
G90 ; use absolute coordinates
M83 ; use relative distances for extrusion

M900 K0.2 ; Filament gcode LA 1.5
; ; Filament gcode LA 1.0




M107
;LAYER_CHANGE
;Z:0.35
;HEIGHT:0.35
G1 E-3.2 F4200
G1 Z.55 F7800
G1 X18.67 Y5.908
G1 Z.35
G1 E3.2 F2400
;TYPE:Skirt/Brim
;WIDTH:0.7
G1 F1800
G1 X19.972 Y4.087 E.20355
G1 X21.828 Y2.836 E.20352
G1 X24.373 Y2.3 E.23649
G1 X154.373 Y2.3 E11.82085
G1 X156.576 Y2.697 E.20354
G1 X158.502 Y3.838 E.20356
G1 X159.909 Y5.579 E.20354
G1 X160.664 Y8.086 E.23807
G1 X170.924 Y130.628 E11.18168
G1 X170.921 Y173.544 E3.90233
G1 X170.818 Y174.675 E.10327
G1 X170.61 Y175.795 E.10358
G1 X170.31 Y176.868 E.10131
G1 X169.901 Y177.94 E.10433
G1 X169.411 Y178.942 E.10142
G1 X168.815 Y179.923 E.10437
G1 X168.151 Y180.819 E.10141
G1 X167.387 Y181.676 E.1044
G1 X166.572 Y182.437 E.10139
G1 X165.666 Y183.141 E.10433
G1 X164.726 Y183.743 E.1015
G1 X163.708 Y184.271 E.10428
G1 X162.675 Y184.692 E.10143
G1 X161.577 Y185.027 E.10438
G1 X159.898 Y185.348 E.15544
G1 X154.373 Y185.925 E.50512
G1 X24.373 Y185.925 E11.82085
G1 X22.171 Y185.528 E.20346
G1 X20.698 Y184.744 E.15173
G1 X12.624 Y178.935 E.90444
G1 X11.775 Y178.212 E.1014
G1 X10.972 Y177.392 E.10436
G1 X10.268 Y176.527 E.10141
G1 X9.627 Y175.575 E.10436
G1 X9.116 Y174.644 E.09657
G1 X8.522 Y173.243 E.13837
G1 X8.212 Y172.23 E.09633
G1 X7.97 Y171.067 E.10802
G1 X7.846 Y169.981 E.09939
G1 X7.819 Y126.869 E3.92016
G1 X18.084 Y8.068 E10.84277
G1 X18.654 Y5.965 E.19812
G1 E-2.24 F4200
;WIPE_START
G1 F6240
G1 X18.67 Y5.908 E-.03786
G1 X19.509 Y4.735 E-.92214
;WIPE_END
G1 Z.55 F7800
G1 X158.629 Y154.407
G1 Z.35
G1 E3.2 F2400
;TYPE:Support material
G1 F1800
G1 X159.227 Y154.434 E.05443
G1 X160.291 Y154.655 E.09881
G1 X161.323 Y155.077 E.10138
G1 X162.263 Y155.678 E.10145
G1 X163.078 Y156.439 E.10139
G1 X163.741 Y157.336 E.10143
G1 X164.232 Y158.338 E.10146
G1 X164.533 Y159.412 E.10142
G1 X164.634 Y160.523 E.10144
G1 X164.532 Y161.633 E.10136
G1 X164.232 Y162.708 E.10148
G1 X163.741 Y163.709 E.10138
G1 X163.087 Y164.594 E.10006
G1 X162.249 Y165.376 E.10422
G1 X161.323 Y165.969 E.09999
G1 X160.291 Y166.39 E.10135
G1 X159.922 Y166.467 E.03428
G1 X159.922 Y167.036 E.05174
G1 X160.291 Y167.113 E.03428
G1 X161.323 Y167.534 E.10135
G1 X162.263 Y168.135 E.10145
G1 X163.078 Y168.897 E.10145
G1 X163.741 Y169.793 E.10135
G1 X164.232 Y170.795 E.10146
G1 X164.533 Y171.869 E.10142
G1 X164.634 Y172.978 E.10126
G1 X164.532 Y174.093 E.10181
G1 X164.232 Y175.165 E.10122
G1 X163.741 Y176.167 E.10146
G1 X163.078 Y177.063 E.10135
G1 X162.263 Y177.825 E.10145
G1 X161.323 Y178.426 E.10145
G1 X160.291 Y178.847 E.10135
G1 X159.199 Y179.075 E.10144
G1 X158.084 Y179.101 E.10141
G1 X156.982 Y178.924 E.10149
G1 X155.931 Y178.551 E.10141
G1 X154.948 Y177.98 E.10337
G1 X154.948 Y167.988 E.90857
G1 X155.931 Y167.409 E.10374
G1 X157.785 Y166.751 E.17889
G1 X155.931 Y166.094 E.17886
G1 X154.948 Y165.522 E.10342
G1 X154.948 Y155.523 E.9092
G1 X155.931 Y154.951 E.10342
G1 X156.982 Y154.579 E.10138
G1 X158.053 Y154.407 E.09863
G1 X158.535 Y154.407 E.04383
G1 E-2.24 F4200
;WIPE_START
G1 F6240
G1 X158.053 Y154.407 E-.3082
G1 X157.047 Y154.568 E-.6518
;WIPE_END
G1 Z.55 F7800
G1 X163.666 Y175.682
G1 Z.35
G1 E3.2 F2400
G1 F1800
G1 X163.666 Y170.918 E.43319
G1 X163.259 Y170.087 E.08414
G1 X162.971 Y169.699 E.04394
G1 X162.971 Y176.262 E.59677
G1 X162.277 Y177.042 E.09493
G1 X162.277 Y168.919 E.73862
G1 X161.583 Y168.368 E.08058
G1 X161.583 Y177.592 E.83873
G1 X160.888 Y177.996 E.0731
G1 X160.888 Y167.964 E.91221
G1 X160.194 Y167.681 E.06815
G1 X160.194 Y178.279 E.96367
G1 X159.5 Y178.438 E.06474
G1 X159.5 Y155.065 E2.1253
G1 X158.805 Y154.978 E.06369
G1 X158.805 Y178.521 E2.14076
G1 X158.111 Y178.535 E.06312
M73 P0 R401
M73 Q0 S401
G1 X158.111 Y167.232 E1.02778
G1 X157.417 Y167.479 E.06698
G1 X157.417 Y178.424 E.99522
G1 X156.722 Y178.235 E.06549
G1 X156.722 Y167.725 E.95567
G1 X156.028 Y168.002 E.06795
G1 X156.028 Y178.282 E.93476
G1 E-2.24 F4200
;WIPE_START
G1 F6240
G1 X156.028 Y176.781 E-.96
;WIPE_END
G1 Z.55 F7800
G1 X163.666 Y163.224
G1 Z.35
G1 E3.2 F2400
G1 F1800
G1 X163.666 Y158.461 E.4331
G1 X163.259 Y157.629 E.08422
G1 X162.971 Y157.241 E.04394
G1 X162.971 Y163.804 E.59677
G1 X162.277 Y164.589 E.09527
G1 X162.277 Y156.461 E.73908
G1 X161.583 Y155.91 E.08058
G1 X161.583 Y165.135 E.83883
G1 X160.888 Y165.539 E.0731
G1 X160.888 Y155.507 E.91221
G1 X160.194 Y155.223 E.06818
G1 X160.194 Y166.123 E.99113
G1 X160.194 Y166.123 F7800
G1 X158.111 Y166.569
G1 F1800
G1 X158.111 Y154.969 E1.05478
G1 X157.417 Y155.079 E.06389
G1 X157.417 Y166.024 E.99522
G1 X156.722 Y165.778 E.06704
G1 X156.722 Y155.268 E.95567
G1 X156.028 Y155.545 E.06795
G1 X156.028 Y165.825 E.93476
G1 E-2.24 F4200
;WIPE_START
G1 F6240
G1 X156.028 Y164.324 E-.96
;WIPE_END
G1 Z.55 F7800
G1 X158.629 Y140.824
G1 Z.35
G1 E3.2 F2400
G1 F1800
G1 X159.227 Y140.851 E.05443
G1 X160.291 Y141.073 E.09883
G1 X161.323 Y141.494 E.10135
G1 X162.263 Y142.095 E.10145
G1 X163.078 Y142.857 E.10145
G1 X163.741 Y143.753 E.10135
G1 X164.232 Y144.755 E.10146
G1 X164.533 Y145.829 E.10142
G1 X164.634 Y146.94 E.10144
G1 X164.532 Y148.051 E.10145
G1 X164.232 Y149.125 E.1014
G1 X163.741 Y150.127 E.10146
G1 X163.087 Y151.011 E.09999
G1 X162.664 Y151.415 E.05319
G1 X162.249 Y151.793 E.05104
G1 X161.323 Y152.386 E.09999
G1 X160.291 Y152.807 E.10135
G1 X159.199 Y153.035 E.10144
G1 X158.084 Y153.06 E.10141
G1 X156.982 Y152.884 E.10147
G1 X155.931 Y152.511 E.10141
G1 X154.948 Y151.939 E.10342
G1 X154.948 Y141.94 E.9092
G1 X155.931 Y141.369 E.10337
G1 X156.982 Y140.996 E.10141
G1 X158.053 Y140.824 E.09863
G1 X158.535 Y140.824 E.04383
G1 X158.535 Y140.824 F7800
G1 X163.666 Y149.641
G1 F1800
G1 X163.666 Y144.878 E.4331
G1 X163.259 Y144.046 E.08422
G1 X162.971 Y143.658 E.04394
G1 X162.971 Y150.221 E.59677
G1 X162.277 Y151.007 E.09534
G1 X162.277 Y142.878 E.73917
G1 X161.583 Y142.328 E.08052
G1 X161.583 Y151.552 E.83873
G1 X160.888 Y151.956 E.0731
G1 X160.888 Y141.924 E.91221
G1 X160.194 Y141.641 E.06815
G1 X160.194 Y152.239 E.96367
G1 X159.5 Y152.397 E.06472
G1 X159.5 Y141.482 E.9925
G1 X158.805 Y141.395 E.06369
G1 X158.805 Y152.481 E1.00805
G1 X158.111 Y152.495 E.06312
G1 X158.111 Y141.387 E1.01005
G1 X157.417 Y141.496 E.06388
G1 X157.417 Y152.384 E.99004
G1 X156.722 Y152.195 E.06549
G1 X156.722 Y141.685 E.95567
G1 X156.028 Y141.962 E.06795
G1 X156.028 Y152.242 E.93476
G1 E-2.24 F4200
;WIPE_START
G1 F6240
G1 X156.028 Y150.741 E-.96
;WIPE_END
G1 Z.55 F7800
G1 X158.629 Y125.039
G1 Z.35
G1 E3.2 F2400
G1 F1800
G1 X159.227 Y125.066 E.05443
G1 X160.291 Y125.287 E.09881
G1 X161.323 Y125.709 E.10138
G1 X162.263 Y126.31 E.10145
G1 X163.078 Y127.072 E.10145
G1 X163.741 Y127.968 E.10135
G1 X164.232 Y128.97 E.10146
G1 X164.533 Y130.044 E.10142
G1 X164.634 Y131.155 E.10144
G1 X164.532 Y132.266 E.10145
G1 X164.232 Y133.34 E.1014
G1 X163.741 Y134.341 E.10138
G1 X163.087 Y135.226 E.10006
G1 X162.664 Y135.629 E.05312
G1 X162.249 Y136.008 E.0511
G1 X161.323 Y136.601 E.09999
G1 X160.291 Y137.022 E.10135
G1 X159.199 Y137.249 E.10142
G1 X158.084 Y137.275 E.10141
G1 X156.982 Y137.099 E.10147
G1 X155.931 Y136.726 E.10141
G1 X154.948 Y136.154 E.10342
G1 X154.948 Y126.155 E.9092
G1 X155.931 Y125.584 E.10337
G1 X156.982 Y125.211 E.10141
G1 X158.053 Y125.039 E.09863
G1 X158.535 Y125.039 E.04383
G1 X158.535 Y125.039 F7800
G1 X163.666 Y133.856
G1 F1800
G1 X163.666 Y129.093 E.4331
G1 X163.259 Y128.261 E.08422
G1 X162.971 Y127.873 E.04394
G1 X162.971 Y134.436 E.59677
G1 X162.277 Y135.222 E.09534
G1 X162.277 Y127.093 E.73917
G1 X161.583 Y126.543 E.08052
G1 X161.583 Y135.767 E.83873
G1 X160.888 Y136.171 E.0731
G1 X160.888 Y126.139 E.91221
G1 X160.194 Y125.855 E.06818
G1 X160.194 Y136.454 E.96376
G1 X159.5 Y136.612 E.06472
G1 X159.5 Y125.697 E.9925
G1 X158.805 Y125.61 E.06369
G1 X158.805 Y136.696 E1.00805
G1 X158.111 Y136.71 E.06312
G1 X158.111 Y125.602 E1.01005
G1 X157.417 Y125.711 E.06388
G1 X157.417 Y136.599 E.99004
G1 X156.722 Y136.41 E.06549
G1 X156.722 Y125.9 E.95567
G1 X156.028 Y126.177 E.06795
G1 X156.028 Y136.457 E.93476
G1 E-2.24 F4200
;WIPE_START
G1 F6240
G1 X156.028 Y134.956 E-.96
;WIPE_END
G1 Z.55 F7800
G1 X98.798 Y57.038
G1 Z.35
G1 E3.2 F2400
G1 F1800
G1 X80.107 Y57.038 E1.69956
G1 X79.948 Y56.96 E.0161
G1 X79.948 Y33.188 E2.16158
G1 X98.798 Y33.188 E1.71402
G1 X98.798 Y56.944 E2.16012
G1 X98.798 Y56.944 F7800
G1 X97.705 Y56.756
G1 F1800
G1 X97.705 Y33.75 E2.09193
G1 X97.011 Y33.75 E.06311
G1 X97.011 Y56.475 E2.06637
G1 X96.317 Y56.475 E.06311
G1 X96.317 Y33.75 E2.06637
G1 X95.622 Y33.75 E.0632
G1 X95.622 Y56.475 E2.06637
G1 X94.928 Y56.475 E.06311
G1 X94.928 Y33.75 E2.06637
G1 X94.234 Y33.75 E.06311
G1 X94.234 Y56.475 E2.06637
G1 X93.539 Y56.475 E.0632
G1 X93.539 Y33.75 E2.06637
G1 X92.845 Y33.75 E.06311
G1 X92.845 Y56.475 E2.06637
G1 X92.151 Y56.475 E.06311
G1 X92.151 Y33.75 E2.06637
G1 X91.456 Y33.75 E.0632
G1 X91.456 Y56.475 E2.06637
G1 X90.762 Y56.475 E.06311
G1 X90.762 Y33.75 E2.06637
G1 X90.068 Y33.75 E.06311
G1 X90.068 Y56.475 E2.06637
G1 X89.373 Y56.475 E.0632
G1 X89.373 Y33.75 E2.06637
G1 X88.679 Y33.75 E.06311
G1 X88.679 Y56.475 E2.06637
G1 X87.985 Y56.475 E.06311
G1 X87.985 Y33.75 E2.06637
G1 X87.29 Y33.75 E.0632
G1 X87.29 Y56.475 E2.06637
G1 X86.596 Y56.475 E.06311
G1 X86.596 Y33.75 E2.06637
G1 X85.902 Y33.75 E.06311
G1 X85.902 Y56.475 E2.06637
G1 X85.207 Y56.475 E.0632
G1 X85.207 Y33.75 E2.06637
G1 X84.513 Y33.75 E.06311
G1 X84.513 Y56.475 E2.06637
G1 X83.819 Y56.475 E.06311
G1 X83.819 Y33.75 E2.06637
G1 X83.124 Y33.75 E.0632
G1 X83.124 Y56.475 E2.06637
G1 X82.43 Y56.475 E.06311
G1 X82.43 Y33.75 E2.06637
G1 X81.736 Y33.75 E.06311
G1 X81.736 Y56.475 E2.06637
G1 X81.042 Y56.475 E.06311
G1 X81.042 Y33.469 E2.09193
G1 E-2.24 F4200
;WIPE_START
G1 F6240
G1 X81.042 Y34.97 E-.96
;WIPE_END
G1 Z.55 F7800
G1 X20.949 Y121.06
G1 Z.35
G1 E3.2 F2400
G1 F1800
G1 X22.041 Y121.287 E.10142
G1 X23.073 Y121.708 E.10135
G1 X23.798 Y122.173 E.07832
G1 X23.798 Y132.136 E.90593
G1 X23.073 Y132.601 E.07832
G1 X22.041 Y133.022 E.10135
G1 X20.949 Y133.249 E.10142
G1 X19.834 Y133.275 E.10141
G1 X18.732 Y133.099 E.10147
G1 X17.681 Y132.726 E.10141
G1 X16.715 Y132.169 E.10139
G1 X15.866 Y131.446 E.1014
G1 X15.162 Y130.582 E.10134
G1 X14.651 Y129.65 E.09665
G1 X14.283 Y128.543 E.10608
G1 X14.131 Y127.44 E.10124
G1 X14.131 Y126.869 E.05192
G1 X14.283 Y125.766 E.10124
G1 X14.651 Y124.659 E.10608
G1 X15.162 Y123.728 E.09657
G1 X15.838 Y122.898 E.09734
G1 X16.273 Y122.501 E.05355
G1 X16.752 Y122.119 E.05571
G1 X17.681 Y121.583 E.09753
G1 X18.732 Y121.21 E.10141
G1 X19.834 Y121.034 E.10147
G1 X20.855 Y121.058 E.09286
G1 X20.855 Y121.058 F7800
G1 X22.719 Y132.442
G1 F1800
G1 X22.719 Y122.171 E.93394
G1 X22.024 Y121.888 E.06823
G1 X22.024 Y132.421 E.95776
G1 X21.33 Y132.595 E.06506
G1 X21.33 Y121.714 E.9894
G1 X20.636 Y121.615 E.06374
G1 X20.636 Y132.694 E1.00741
G1 X19.941 Y132.71 E.06321
G1 X19.941 Y121.599 E1.01032
G1 X19.247 Y121.698 E.06374
G1 X19.247 Y132.611 E.99231
G1 X18.553 Y132.438 E.06504
G1 X18.553 Y121.871 E.96085
G1 X17.858 Y122.131 E.06747
G1 X17.858 Y132.178 E.91357
G1 X17.164 Y131.778 E.07284
G1 X17.164 Y122.531 E.84083
G1 X16.47 Y123.083 E.08063
G1 X16.47 Y131.221 E.73998
G1 X15.775 Y130.444 E.09479
G1 X15.775 Y123.865 E.59823
G1 X15.081 Y125.114 E.12993
G1 X15.081 Y129.849 E.43055
G1 E-2.24 F4200
;WIPE_START
G1 F6240
G1 X15.081 Y128.348 E-.96
;WIPE_END
G1 Z.55 F7800
G1 X20.379 Y135.532
G1 Z.35
G1 E3.2 F2400
G1 F1800
G1 X20.977 Y135.559 E.05443
G1 X22.041 Y135.78 E.09881
G1 X23.073 Y136.201 E.10135
G1 X23.798 Y136.666 E.07832
G1 X23.798 Y146.629 E.90593
G1 X23.073 Y147.093 E.07827
G1 X22.041 Y147.515 E.10138
G1 X20.949 Y147.742 E.10142
G1 X19.834 Y147.768 E.10141
G1 X18.732 Y147.591 E.10149
G1 X17.681 Y147.219 E.10138
G1 X16.715 Y146.662 E.10139
G1 X15.866 Y145.939 E.1014
G1 X15.162 Y145.074 E.10141
G1 X14.651 Y144.143 E.09657
G1 X14.283 Y143.036 E.10608
G1 X14.131 Y141.933 E.10124
G1 X14.131 Y141.362 E.05192
G1 X14.283 Y140.258 E.10133
G1 X14.651 Y139.152 E.10599
G1 X15.162 Y138.22 E.09665
G1 X15.866 Y137.356 E.10134
G1 X16.715 Y136.633 E.1014
G1 X17.682 Y136.076 E.10147
G1 X18.732 Y135.703 E.10132
G1 X19.803 Y135.532 E.09862
G1 X20.285 Y135.532 E.04383
G1 X20.285 Y135.532 F7800
G1 X22.719 Y146.934
G1 F1800
G1 X22.719 Y136.664 E.93385
G1 X22.024 Y136.381 E.06823
G1 X22.024 Y146.914 E.95776
G1 X21.33 Y147.088 E.06506
G1 X21.33 Y136.207 E.9894
G1 X20.636 Y136.106 E.06377
G1 X20.636 Y147.187 E1.00759
G1 X19.941 Y147.203 E.06321
G1 X19.941 Y136.094 E1.01014
G1 X19.247 Y136.19 E.06371
G1 X19.247 Y147.104 E.99241
G1 X18.553 Y146.931 E.06504
G1 X18.553 Y136.364 E.96085
G1 X17.858 Y136.623 E.06744
G1 X17.858 Y146.671 E.91366
G1 X17.164 Y146.271 E.07284
G1 X17.164 Y137.024 E.84083
G1 X16.47 Y137.581 E.08092
G1 X16.47 Y145.714 E.73953
G1 X15.775 Y144.937 E.09479
G1 X15.775 Y138.358 E.59823
G1 X15.081 Y139.607 E.12993
G1 X15.081 Y144.342 E.43055
G1 E-2.24 F4200
;WIPE_START
G1 F6240
G1 X15.081 Y142.841 E-.96
;WIPE_END
G1 Z.55 F7800
G1 X20.379 Y150.495
G1 Z.35
G1 E3.2 F2400
G1 F1800
G1 X20.977 Y150.521 E.05443
G1 X22.041 Y150.743 E.09883
G1 X23.073 Y151.164 E.10135
G1 X23.798 Y151.628 E.07827
G1 X23.798 Y161.592 E.90602
G1 X23.073 Y162.056 E.07827
G1 X22.041 Y162.478 E.10138
G1 X21.563 Y162.577 E.04439
G1 X21.563 Y163.146 E.05174
G1 X22.041 Y163.246 E.04441
G1 X23.073 Y163.667 E.10135
G1 X23.798 Y164.131 E.07827
G1 X23.798 Y174.095 E.90602
G1 X23.073 Y174.559 E.07827
G1 X22.041 Y174.98 E.10135
G1 X20.949 Y175.208 E.10144
G1 X19.834 Y175.234 E.10141
G1 X18.732 Y175.057 E.10149
G1 X17.681 Y174.684 E.10141
G1 X16.715 Y174.127 E.10139
G1 X15.866 Y173.405 E.10134
G1 X15.162 Y172.54 E.10141
G1 X14.651 Y171.609 E.09657
G1 X14.432 Y171.025 E.05671
G1 X14.283 Y170.502 E.04945
G1 X14.131 Y169.399 E.10124
G1 X14.181 Y168.286 E.10131
G1 X14.283 Y167.724 E.05194
G1 X14.651 Y166.618 E.10599
G1 X15.162 Y165.686 E.09665
G1 X15.838 Y164.857 E.09727
G1 X16.752 Y164.078 E.1092
G1 X17.681 Y163.542 E.09753
G1 X19.599 Y162.862 E.18504
G1 X17.682 Y162.181 E.18498
G1 X16.715 Y161.624 E.10147
G1 X15.866 Y160.902 E.10134
G1 X15.162 Y160.037 E.10141
G1 X14.651 Y159.106 E.09657
G1 X14.283 Y157.999 E.10608
G1 X14.131 Y156.896 E.10124
G1 X14.131 Y156.325 E.05192
G1 X14.283 Y155.221 E.10133
G1 X14.651 Y154.115 E.10599
G1 X15.162 Y153.183 E.09665
G1 X15.866 Y152.319 E.10134
G1 X16.715 Y151.596 E.1014
G1 X17.681 Y151.039 E.10139
G1 X18.732 Y150.666 E.10141
G1 X19.803 Y150.495 E.09862
G1 X20.285 Y150.495 E.04383
G1 X20.285 Y150.495 F7800
G1 X22.719 Y174.4
G1 F1800
G1 X22.719 Y164.13 E.93385
G1 X22.024 Y163.847 E.06823
G1 X22.024 Y174.38 E.95776
G1 X21.33 Y174.554 E.06506
G1 X21.33 Y163.385 E1.01559
G1 X21.33 Y163.385 F7800
G1 X22.719 Y161.897
G1 F1800
