; generated by PrusaSlicer 2.8.1+win64 on 2024-11-25 at 11:38:38 UTC


;
;

;
;

;
;

;
;
; 

; external perimeters extrusion width = 0.45mm
; perimeters extrusion width = 0.45mm
; infill extrusion width = 0.45mm
; solid infill extrusion width = 0.45mm
; top infill extrusion width = 0.40mm
; first layer extrusion width = 0.70mm

M73 P0 R281
M73 Q0 S281
M201 X2500 Y2500 Z400 E5000 ; sets maximum accelerations, mm/sec^2
M203 X180 Y180 Z12 E80 ; sets maximum feedrates, mm / sec
M204 P2000 R1250 T2500 ; sets acceleration (P, T) and retract acceleration (R), mm/sec^2
M205 X8.00 Y8.00 Z2.00 E10.00 ; sets the jerk limits, mm/sec
M205 S0 T0 ; sets the minimum extruding and travel feed rate, mm/sec
;TYPE:Custom
M862.3 P "MINI" ; printer model check
G90 ; use absolute coordinates
M83 ; extruder relative mode
M104 S170 ; set extruder temp for bed leveling
M140 S60 ; set bed temp
M109 R170 ; wait for bed leveling temp
M190 S60 ; wait for bed temp
M204 T1250 ; set travel acceleration
G28 ; home all without mesh bed level
G29 ; mesh bed leveling 
M204 T2500 ; restore travel acceleration
M104 S215 ; set extruder temp
G92 E0
G1 Y-2 X179 F2400
G1 Z3 F720
M109 S215 ; wait for extruder temp

; intro line
G1 X170 F1000
G1 Z0.2 F720
G1 X110 E8 F900
G1 X40 E10 F700
G92 E0

M221 S95 ; set flow
G21 ; set units to millimeters
G90 ; use absolute coordinates
M83 ; use relative distances for extrusion

M900 K0.2 ; Filament gcode LA 1.5
; ; Filament gcode LA 1.0




M107
;LAYER_CHANGE
;Z:0.35
;HEIGHT:0.35
G1 E-3.2 F4200
G1 Z.55 F7800
G1 X20.659 Y5.608
G1 Z.35
G1 E3.2 F2400
;TYPE:Skirt/Brim
;WIDTH:0.7
G1 F1800
G1 X21.8 Y3.682 E.20356
G1 X23.541 Y2.275 E.20354
G1 X26.575 Y1.498 E.28478
G1 X146.577 Y1.498 E10.91173
G1 X148.78 Y1.895 E.20354
G1 X150.706 Y3.035 E.20351
G1 X152.113 Y4.776 E.20354
G1 X152.89 Y7.81 E.28478
G1 X152.89 Y171.812 E14.91263
G1 X152.493 Y174.015 E.20354
G1 X151.352 Y175.941 E.20356
G1 X149.611 Y177.348 E.20354
G1 X146.577 Y178.125 E.28478
G1 X26.575 Y178.125 E10.91173
G1 X24.372 Y177.728 E.20354
G1 X22.446 Y176.587 E.20356
G1 X21.039 Y174.847 E.20347
G1 X20.262 Y171.812 E.28487
G1 X20.262 Y7.81 E14.91263
G1 X20.648 Y5.667 E.198
G1 E-2.24 F4200
;WIPE_START
G1 F6240
G1 X20.659 Y5.608 E-.03838
G1 X21.393 Y4.368 E-.92162
;WIPE_END
G1 Z.55 F7800
G1 X28.174 Y170.213
G1 Z.35
G1 E3.2 F2400
;TYPE:Perimeter
;WIDTH:0.7
G1 F1800
G1 X28.174 Y9.41 E14.62174
G1 X144.977 Y9.41 E10.62084
G1 X144.977 Y67.812 E5.31047
G1 X144.977 Y170.213 E9.31127
G1 X28.234 Y170.213 E10.61539
G1 X28.234 Y170.213 F7800
M73 P0 R280
M73 Q0 S280
G1 X27.55 Y170.838
G1 F1800
G1 X27.55 Y8.785 E14.7354
G1 X145.602 Y8.785 E10.73441
G1 X145.602 Y67.812 E5.3673
G1 X145.602 Y170.838 E9.36811
G1 X27.61 Y170.838 E10.72896
G1 X27.61 Y170.838 F7800
G1 X26.925 Y171.462
;TYPE:External perimeter
G1 F1800
G1 X26.925 Y8.16 E14.84897
G1 X146.227 Y8.16 E10.84807
G1 X146.227 Y67.812 E5.42413
G1 X146.227 Y171.462 E9.42485
G1 X26.985 Y171.462 E10.84262
G1 E-2.24 F4200
;WIPE_START
G1 F6240
G1 X26.925 Y171.462 E-.03837
G1 X26.925 Y170.021 E-.92163
;WIPE_END
G1 Z.55 F7800
G1 X144.79 Y10.863
G1 Z.35
G1 E3.2 F2400
;TYPE:Solid infill
;WIDTH:0.700845
G1 F1800
G1 X143.806 Y9.879 E.12671
G1 X142.921 Y9.879 E.08058
G1 X144.509 Y11.466 E.20442
G1 X144.509 Y12.351 E.08058
G1 X142.036 Y9.879 E.31838
G1 X141.151 Y9.879 E.08058
G1 X144.509 Y13.236 E.43234
G1 X144.509 Y14.121 E.08058
G1 X140.266 Y9.879 E.5463
G1 X139.381 Y9.879 E.08058
G1 X144.509 Y15.006 E.66026
G1 X144.509 Y15.891 E.08058
G1 X138.497 Y9.879 E.77415
G1 X137.612 Y9.879 E.08058
G1 X144.509 Y16.776 E.88811
G1 X144.509 Y17.661 E.08058
G1 X136.727 Y9.879 E1.00207
G1 X135.842 Y9.879 E.08058
G1 X144.509 Y18.546 E1.11603
G1 X144.509 Y19.431 E.08058
G1 X134.957 Y9.879 E1.22999
G1 X134.072 Y9.879 E.08058
G1 X144.509 Y20.316 E1.34395
G1 X144.509 Y21.201 E.08058
G1 X133.187 Y9.879 E1.45791
G1 X132.302 Y9.879 E.08058
G1 X144.509 Y22.085 E1.5718
G1 X144.509 Y22.97 E.08058
G1 X131.417 Y9.879 E1.68576
G1 X130.532 Y9.879 E.08058
G1 X144.509 Y23.855 E1.79972
G1 X144.509 Y24.74 E.08058
G1 X129.647 Y9.879 E1.91368
G1 X128.762 Y9.879 E.08058
G1 X144.509 Y25.625 E2.02764
G1 X144.509 Y26.51 E.08058
G1 X127.877 Y9.879 E2.1416
G1 X126.993 Y9.879 E.08049
G1 X144.509 Y27.395 E2.25549
G1 X144.509 Y28.28 E.08058
G1 X126.108 Y9.879 E2.36945
G1 X125.223 Y9.879 E.08058
G1 X144.509 Y29.165 E2.48341
G1 X144.509 Y30.05 E.08058
G1 X124.338 Y9.879 E2.59737
G1 X123.453 Y9.879 E.08058
G1 X144.509 Y30.935 E2.71133
G1 X144.509 Y31.82 E.08058
G1 X122.568 Y9.879 E2.82529
G1 X121.683 Y9.879 E.08058
G1 X144.509 Y32.705 E2.93925
G1 X144.509 Y33.589 E.08049
G1 X120.798 Y9.879 E3.05315
G1 X119.913 Y9.879 E.08058
G1 X144.509 Y34.474 E3.1671
G1 X144.509 Y35.359 E.08058
G1 X119.028 Y9.879 E3.28106
G1 X118.143 Y9.879 E.08058
M73 P0 R279
M73 Q0 S279
G1 X144.509 Y36.244 E3.39502
G1 X144.509 Y37.129 E.08058
G1 X117.258 Y9.879 E3.50898
G1 X116.373 Y9.879 E.08058
G1 X144.509 Y38.014 E3.62294
G1 X144.509 Y38.899 E.08058
G1 X115.489 Y9.879 E3.73684
G1 X114.604 Y9.879 E.08058
G1 X144.509 Y39.784 E3.8508
G1 X144.509 Y40.669 E.08058
G1 X113.719 Y9.879 E3.96476
G1 X112.834 Y9.879 E.08058
G1 X144.509 Y41.554 E4.07872
G1 X144.509 Y42.439 E.08058
G1 X111.949 Y9.879 E4.19267
G1 X111.064 Y9.879 E.08058
G1 X144.509 Y43.324 E4.30663
G1 X144.509 Y44.208 E.08049
G1 X110.179 Y9.879 E4.42053
G1 X109.294 Y9.879 E.08058
G1 X144.509 Y45.093 E4.53449
G1 X144.509 Y45.978 E.08058
G1 X108.409 Y9.879 E4.64845
G1 X107.524 Y9.879 E.08058
G1 X144.509 Y46.863 E4.76241
G1 X144.509 Y47.748 E.08058
G1 X106.639 Y9.879 E4.87637
G1 X105.754 Y9.879 E.08058
G1 X144.509 Y48.633 E4.99033
G1 X144.509 Y49.518 E.08058
G1 X104.87 Y9.879 E5.10422
G1 X103.985 Y9.879 E.08058
G1 X144.509 Y50.403 E5.21818
G1 X144.509 Y51.288 E.08058
G1 X103.1 Y9.879 E5.33214
G1 X102.215 Y9.879 E.08058
G1 X144.509 Y52.173 E5.4461
G1 X144.509 Y53.058 E.08058
G1 X101.33 Y9.879 E5.56006
G1 X100.445 Y9.879 E.08058
G1 X144.509 Y53.943 E5.67402
G1 X144.509 Y54.828 E.08058
G1 X99.56 Y9.879 E5.78798
G1 X98.675 Y9.879 E.08058
G1 X144.509 Y55.712 E5.90187
G1 X144.509 Y56.597 E.08058
G1 X97.79 Y9.879 E6.01583
G1 X96.905 Y9.879 E.08058
G1 X144.509 Y57.482 E6.12979
G1 X144.509 Y58.367 E.08058
G1 X96.02 Y9.879 E6.24375
G1 X95.135 Y9.879 E.08058
G1 X144.509 Y59.252 E6.35771
G1 X144.509 Y60.137 E.08058
G1 X94.25 Y9.879 E6.47167
G1 X93.366 Y9.879 E.08049
G1 X144.509 Y61.022 E6.58556
G1 X144.509 Y61.907 E.08058
M73 P1 R279
M73 Q1 S279
G1 X92.481 Y9.879 E6.69952
G1 X91.596 Y9.879 E.08058
G1 X144.509 Y62.792 E6.81348
G1 X144.509 Y63.677 E.08058
M73 P1 R278
M73 Q1 S278
G1 X90.711 Y9.879 E6.92744
G1 X89.826 Y9.879 E.08058
G1 X144.509 Y64.562 E7.0414
G1 X144.509 Y65.447 E.08058
G1 X88.941 Y9.879 E7.15536
G1 X88.056 Y9.879 E.08058
G1 X144.509 Y66.332 E7.26932
G1 X144.509 Y67.216 E.08049
G1 X87.171 Y9.879 E7.38322
G1 X86.286 Y9.879 E.08058
G1 X144.509 Y68.101 E7.49717
G1 X144.509 Y68.986 E.08058
G1 X85.401 Y9.879 E7.61113
G1 X84.516 Y9.879 E.08058
G1 X144.509 Y69.871 E7.72509
G1 X144.509 Y70.756 E.08058
G1 X83.631 Y9.879 E7.83905
G1 X82.746 Y9.879 E.08058
G1 X144.509 Y71.641 E7.95301
G1 X144.509 Y72.526 E.08058
G1 X81.862 Y9.879 E8.06691
G1 X80.977 Y9.879 E.08058
G1 X144.509 Y73.411 E8.18087
G1 X144.509 Y74.296 E.08058
G1 X80.092 Y9.879 E8.29483
G1 X79.207 Y9.879 E.08058
G1 X144.509 Y75.181 E8.40879
G1 X144.509 Y76.066 E.08058
G1 X78.322 Y9.879 E8.52274
G1 X77.437 Y9.879 E.08058
G1 X144.509 Y76.951 E8.6367
G1 X144.509 Y77.836 E.08058
G1 X76.552 Y9.879 E8.75066
G1 X75.667 Y9.879 E.08058
G1 X144.509 Y78.72 E8.86456
G1 X144.509 Y79.605 E.08058
G1 X74.782 Y9.879 E8.97852
G1 X73.897 Y9.879 E.08058
G1 X144.509 Y80.49 E9.09248
G1 X144.509 Y81.375 E.08058
G1 X73.012 Y9.879 E9.20644
G1 X72.127 Y9.879 E.08058
M73 P1 R277
M73 Q1 S277
G1 X144.509 Y82.26 E9.3204
G1 X144.509 Y83.145 E.08058
G1 X71.242 Y9.879 E9.43436
G1 X70.358 Y9.879 E.08049
G1 X144.509 Y84.03 E9.54825
G1 X144.509 Y84.915 E.08058
G1 X69.473 Y9.879 E9.66221
G1 X68.588 Y9.879 E.08058
G1 X144.509 Y85.8 E9.77617
G1 X144.509 Y86.685 E.08058
G1 X67.703 Y9.879 E9.89013
G1 X66.818 Y9.879 E.08058
G1 X144.509 Y87.57 E10.00409
G1 X144.509 Y88.455 E.08058
G1 X65.933 Y9.879 E10.11805
G1 X65.048 Y9.879 E.08058
G1 X144.509 Y89.339 E10.23194
G1 X144.509 Y90.224 E.08058
G1 X64.163 Y9.879 E10.3459
G1 X63.278 Y9.879 E.08058
G1 X144.509 Y91.109 E10.45986
G1 X144.509 Y91.994 E.08058
G1 X62.393 Y9.879 E10.57382
G1 X61.508 Y9.879 E.08058
G1 X144.509 Y92.879 E10.68778
G1 X144.509 Y93.764 E.08058
G1 X60.623 Y9.879 E10.80174
G1 X59.739 Y9.879 E.08049
G1 X144.509 Y94.649 E10.91563
G1 X144.509 Y95.534 E.08058
G1 X58.854 Y9.879 E11.02959
G1 X57.969 Y9.879 E.08058
M73 P1 R276
M73 Q1 S276
G1 X144.509 Y96.419 E11.14355
G1 X144.509 Y97.304 E.08058
G1 X57.084 Y9.879 E11.25751
G1 X56.199 Y9.879 E.08058
G1 X144.509 Y98.189 E11.37147
G1 X144.509 Y99.074 E.08058
G1 X55.314 Y9.879 E11.48543
G1 X54.429 Y9.879 E.08058
G1 X144.509 Y99.959 E11.59939
G1 X144.509 Y100.843 E.08049
G1 X53.544 Y9.879 E11.71329
G1 X52.659 Y9.879 E.08058
G1 X144.509 Y101.728 E11.82724
G1 X144.509 Y102.613 E.08058
G1 X51.774 Y9.879 E11.9412
G1 X50.889 Y9.879 E.08058
G1 X144.509 Y103.498 E12.05516
G1 X144.509 Y104.383 E.08058
G1 X50.004 Y9.879 E12.16912
G1 X49.119 Y9.879 E.08058
M73 P2 R276
M73 Q2 S276
G1 X144.509 Y105.268 E12.28308
G1 X144.509 Y106.153 E.08058
G1 X48.235 Y9.879 E12.39698
G1 X47.35 Y9.879 E.08058
G1 X144.509 Y107.038 E12.51094
G1 X144.509 Y107.923 E.08058
M73 P2 R275
M73 Q2 S275
G1 X46.465 Y9.879 E12.6249
G1 X45.58 Y9.879 E.08058
G1 X144.509 Y108.808 E12.73886
G1 X144.509 Y109.693 E.08058
G1 X44.695 Y9.879 E12.85281
G1 X43.81 Y9.879 E.08058
G1 X144.509 Y110.578 E12.96677
G1 X144.509 Y111.463 E.08058
G1 X42.925 Y9.879 E13.08073
G1 X42.04 Y9.879 E.08058
G1 X144.509 Y112.347 E13.19463
G1 X144.509 Y113.232 E.08058
G1 X41.155 Y9.879 E13.30859
G1 X40.27 Y9.879 E.08058
G1 X144.509 Y114.117 E13.42255
G1 X144.509 Y115.002 E.08058
G1 X39.385 Y9.879 E13.53651
G1 X38.5 Y9.879 E.08058
G1 X144.509 Y115.887 E13.65047
G1 X144.509 Y116.772 E.08058
G1 X37.615 Y9.879 E13.76443
G1 X36.731 Y9.879 E.08049
G1 X144.509 Y117.657 E13.87832
G1 X144.509 Y118.542 E.08058
G1 X35.846 Y9.879 E13.99228
G1 X34.961 Y9.879 E.08058
M73 P2 R274
M73 Q2 S274
G1 X144.509 Y119.427 E14.10624
G1 X144.509 Y120.312 E.08058
G1 X34.076 Y9.879 E14.2202
G1 X33.191 Y9.879 E.08058
G1 X144.509 Y121.197 E14.33416
G1 X144.509 Y122.082 E.08058
G1 X32.306 Y9.879 E14.44812
G1 X31.421 Y9.879 E.08058
G1 X144.509 Y122.967 E14.56208
G1 X144.509 Y123.851 E.08049
G1 X30.536 Y9.879 E14.67597
G1 X29.651 Y9.879 E.08058
G1 X144.509 Y124.736 E14.78993
G1 X144.509 Y125.621 E.08058
G1 X28.766 Y9.879 E14.90389
G1 X28.643 Y9.879 E.0112
G1 X28.643 Y10.641 E.06938
G1 X144.509 Y126.506 E14.91973
G1 X144.509 Y127.391 E.08058
G1 X28.643 Y11.526 E14.91973
G1 X28.643 Y12.41 E.08049
G1 X144.509 Y128.276 E14.91979
G1 X144.509 Y129.161 E.08058
M73 P2 R273
M73 Q2 S273
G1 X28.643 Y13.295 E14.91979
G1 X28.643 Y14.18 E.08058
G1 X144.509 Y130.046 E14.91979
G1 X144.509 Y130.931 E.08058
G1 X28.643 Y15.065 E14.91979
G1 X28.643 Y15.95 E.08058
G1 X144.509 Y131.816 E14.91979
G1 X144.509 Y132.701 E.08058
G1 X28.643 Y16.835 E14.91979
G1 X28.643 Y17.72 E.08058
G1 X144.509 Y133.586 E14.91979
G1 X144.509 Y134.47 E.08049
M73 P3 R273
M73 Q3 S273
G1 X28.643 Y18.605 E14.91973
G1 X28.643 Y19.49 E.08058
G1 X144.509 Y135.355 E14.91973
G1 X144.509 Y136.24 E.08058
G1 X28.643 Y20.375 E14.91973
G1 X28.643 Y21.26 E.08058
G1 X144.509 Y137.125 E14.91973
G1 X144.509 Y138.01 E.08058
G1 X28.643 Y22.145 E14.91973
G1 X28.643 Y23.03 E.08058
M73 P3 R272
M73 Q3 S272
G1 X144.509 Y138.895 E14.91973
G1 X144.509 Y139.78 E.08058
G1 X28.643 Y23.914 E14.91979
G1 X28.643 Y24.799 E.08058
G1 X144.509 Y140.665 E14.91979
G1 X144.509 Y141.55 E.08058
G1 X28.643 Y25.684 E14.91979
G1 X28.643 Y26.569 E.08058
G1 X144.509 Y142.435 E14.91979
G1 X144.509 Y143.32 E.08058
G1 X28.643 Y27.454 E14.91979
G1 X28.643 Y28.339 E.08058
G1 X144.509 Y144.205 E14.91979
G1 X144.509 Y145.09 E.08058
G1 X28.643 Y29.224 E14.91979
G1 X28.643 Y30.109 E.08058
G1 X144.509 Y145.974 E14.91973
G1 X144.509 Y146.859 E.08058
G1 X28.643 Y30.994 E14.91973
G1 X28.643 Y31.879 E.08058
G1 X144.509 Y147.744 E14.91973
G1 X144.509 Y148.629 E.08058
M73 P3 R271
M73 Q3 S271
G1 X28.643 Y32.764 E14.91973
G1 X28.643 Y33.649 E.08058
G1 X144.509 Y149.514 E14.91973
G1 X144.509 Y150.399 E.08058
G1 X28.643 Y34.534 E14.91973
G1 X28.643 Y35.418 E.08049
G1 X144.509 Y151.284 E14.91979
G1 X144.509 Y152.169 E.08058
G1 X28.643 Y36.303 E14.91979
G1 X28.643 Y37.188 E.08058
G1 X144.509 Y153.054 E14.91979
G1 X144.509 Y153.939 E.08058
G1 X28.643 Y38.073 E14.91979
G1 X28.643 Y38.958 E.08058
G1 X144.509 Y154.824 E14.91979
G1 X144.509 Y155.709 E.08058
G1 X28.643 Y39.843 E14.91979
G1 X28.643 Y40.728 E.08058
G1 X144.509 Y156.594 E14.91979
G1 X144.509 Y157.478 E.08049
G1 X28.643 Y41.613 E14.91973
G1 X28.643 Y42.498 E.08058
M73 P3 R270
M73 Q3 S270
G1 X144.509 Y158.363 E14.91973
G1 X144.509 Y159.248 E.08058
G1 X28.643 Y43.383 E14.91973
G1 X28.643 Y44.268 E.08058
G1 X144.509 Y160.133 E14.91973
G1 X144.509 Y161.018 E.08058
G1 X28.643 Y45.153 E14.91973
G1 X28.643 Y46.037 E.08049
M73 P4 R270
M73 Q4 S270
G1 X144.509 Y161.903 E14.91979
G1 X144.509 Y162.788 E.08058
G1 X28.643 Y46.922 E14.91979
G1 X28.643 Y47.807 E.08058
G1 X144.509 Y163.673 E14.91979
G1 X144.509 Y164.558 E.08058
G1 X28.643 Y48.692 E14.91979
G1 X28.643 Y49.577 E.08058
G1 X144.509 Y165.443 E14.91979
G1 X144.509 Y166.328 E.08058
G1 X28.643 Y50.462 E14.91979
G1 X28.643 Y51.347 E.08058
M73 P4 R269
M73 Q4 S269
G1 X144.509 Y167.213 E14.91979
G1 X144.509 Y168.098 E.08058
G1 X28.643 Y52.232 E14.91979
G1 X28.643 Y53.117 E.08058
G1 X144.509 Y168.982 E14.91973
G1 X144.509 Y169.744 E.06938
G1 X144.385 Y169.744 E.01129
G1 X28.643 Y54.002 E14.90383
G1 X28.643 Y54.887 E.08058
G1 X143.5 Y169.744 E14.78987
G1 X142.615 Y169.744 E.08058
G1 X28.643 Y55.772 E14.67591
G1 X28.643 Y56.657 E.08058
G1 X141.731 Y169.744 E14.56201
G1 X140.846 Y169.744 E.08058
G1 X28.643 Y57.541 E14.44812
G1 X28.643 Y58.426 E.08058
G1 X139.961 Y169.744 E14.33416
G1 X139.076 Y169.744 E.08058
G1 X28.643 Y59.311 E14.2202
G1 X28.643 Y60.196 E.08058
G1 X138.191 Y169.744 E14.10624
G1 X137.306 Y169.744 E.08058
G1 X28.643 Y61.081 E13.99228
G1 X28.643 Y61.966 E.08058
M73 P4 R268
M73 Q4 S268
G1 X136.421 Y169.744 E13.87832
G1 X135.536 Y169.744 E.08058
G1 X28.643 Y62.851 E13.76436
G1 X28.643 Y63.736 E.08058
G1 X134.651 Y169.744 E13.6504
G1 X133.766 Y169.744 E.08058
G1 X28.643 Y64.621 E13.53644
G1 X28.643 Y65.506 E.08058
G1 X132.881 Y169.744 E13.42248
G1 X131.996 Y169.744 E.08058
G1 X28.643 Y66.391 E13.30852
G1 X28.643 Y67.276 E.08058
G1 X131.111 Y169.744 E13.19456
G1 X130.227 Y169.744 E.08049
G1 X28.643 Y68.161 E13.08067
G1 X28.643 Y69.045 E.08049
G1 X129.342 Y169.744 E12.96677
G1 X128.457 Y169.744 E.08058
G1 X28.643 Y69.93 E12.85281
G1 X28.643 Y70.815 E.08058
G1 X127.572 Y169.744 E12.73886
G1 X126.687 Y169.744 E.08058
G1 X28.643 Y71.7 E12.6249
G1 X28.643 Y72.585 E.08058
M73 P4 R267
M73 Q4 S267
G1 X125.802 Y169.744 E12.51094
G1 X124.917 Y169.744 E.08058
G1 X28.643 Y73.47 E12.39698
G1 X28.643 Y74.355 E.08058
M73 P5 R267
M73 Q5 S267
G1 X124.032 Y169.744 E12.28302
G1 X123.147 Y169.744 E.08058
G1 X28.643 Y75.24 E12.16906
G1 X28.643 Y76.125 E.08058
G1 X122.262 Y169.744 E12.0551
G1 X121.377 Y169.744 E.08058
G1 X28.643 Y77.01 E11.94114
G1 X28.643 Y77.895 E.08058
G1 X120.492 Y169.744 E11.82718
G1 X119.607 Y169.744 E.08058
G1 X28.643 Y78.78 E11.71322
G1 X28.643 Y79.665 E.08058
G1 X118.723 Y169.744 E11.59933
G1 X117.838 Y169.744 E.08058
G1 X28.643 Y80.549 E11.48543
G1 X28.643 Y81.434 E.08058
G1 X116.953 Y169.744 E11.37147
G1 X116.068 Y169.744 E.08058
G1 X28.643 Y82.319 E11.25751
G1 X28.643 Y83.204 E.08058
G1 X115.183 Y169.744 E11.14355
G1 X114.298 Y169.744 E.08058
M73 P5 R266
M73 Q5 S266
G1 X28.643 Y84.089 E11.02959
G1 X28.643 Y84.974 E.08058
G1 X113.413 Y169.744 E10.91563
G1 X112.528 Y169.744 E.08058
G1 X28.643 Y85.859 E10.80167
G1 X28.643 Y86.744 E.08058
G1 X111.643 Y169.744 E10.68772
G1 X110.758 Y169.744 E.08058
G1 X28.643 Y87.629 E10.57376
