; generated by PrusaSlicer 2.8.1+win64 on 2024-11-25 at 11:51:18 UTC


;
;

;
;

;
;

;
;
; 

; external perimeters extrusion width = 0.45mm
; perimeters extrusion width = 0.45mm
; infill extrusion width = 0.45mm
; solid infill extrusion width = 0.45mm
; top infill extrusion width = 0.40mm
; support material extrusion width = 0.40mm
; first layer extrusion width = 0.70mm

M73 P0 R113
M73 Q0 S113
M201 X2500 Y2500 Z400 E5000 ; sets maximum accelerations, mm/sec^2
M203 X180 Y180 Z12 E80 ; sets maximum feedrates, mm / sec
M204 P2000 R1250 T2500 ; sets acceleration (P, T) and retract acceleration (R), mm/sec^2
M205 X8.00 Y8.00 Z2.00 E10.00 ; sets the jerk limits, mm/sec
M205 S0 T0 ; sets the minimum extruding and travel feed rate, mm/sec
;TYPE:Custom
M862.3 P "MINI" ; printer model check
G90 ; use absolute coordinates
M83 ; extruder relative mode
M104 S170 ; set extruder temp for bed leveling
M140 S60 ; set bed temp
M109 R170 ; wait for bed leveling temp
M190 S60 ; wait for bed temp
M204 T1250 ; set travel acceleration
G28 ; home all without mesh bed level
G29 ; mesh bed leveling 
M204 T2500 ; restore travel acceleration
M104 S215 ; set extruder temp
G92 E0
G1 Y-2 X179 F2400
G1 Z3 F720
M109 S215 ; wait for extruder temp

; intro line
G1 X170 F1000
G1 Z0.2 F720
G1 X110 E8 F900
G1 X40 E10 F700
G92 E0

M221 S95 ; set flow
G21 ; set units to millimeters
G90 ; use absolute coordinates
M83 ; use relative distances for extrusion

M900 K0.2 ; Filament gcode LA 1.5
; ; Filament gcode LA 1.0




M107
;LAYER_CHANGE
;Z:0.35
;HEIGHT:0.35
G1 E-3.2 F4200
G1 Z.55 F7800
G1 X21.35 Y83.371
G1 Z.35
G1 E3.2 F2400
;TYPE:Skirt/Brim
;WIDTH:0.7
G1 F1800
G1 X24.154 Y82.652 E.26322
G1 X154.154 Y82.652 E11.82085
G1 X156.357 Y83.049 E.20354
M73 P0 R112
M73 Q0 S112
G1 X158.283 Y84.19 E.20356
G1 X159.69 Y85.931 E.20354
G1 X160.467 Y88.965 E.28478
G1 X160.467 Y113.965 E2.27324
G1 X160.07 Y116.168 E.20354
G1 X158.929 Y118.094 E.20356
G1 X157.876 Y119.064 E.13018
G1 X145.255 Y128.26 E1.41995
G1 X144.33 Y128.852 E.09986
G1 X143.311 Y129.381 E.1044
G1 X142.278 Y129.802 E.10143
G1 X141.18 Y130.137 E.10438
G1 X140.088 Y130.364 E.10142
G1 X138.948 Y130.495 E.10434
G1 X137.687 Y130.523 E.11469
G1 X35.021 Y130.523 E9.33538
G1 X34.023 Y130.443 E.09104
G1 X32.922 Y130.267 E.10138
G1 X31.809 Y129.983 E.10445
G1 X30.758 Y129.61 E.10141
G1 X29.716 Y129.13 E.10432
G1 X28.75 Y128.573 E.10139
G1 X27.812 Y127.911 E.10439
G1 X26.963 Y127.189 E.10134
G1 X26.172 Y126.383 E.10269
G1 X19.272 Y117.967 E.98958
G1 X18.183 Y116.012 E.20349
G1 X17.842 Y113.965 E.1887
G1 X17.842 Y88.965 E2.27324
G1 X18.239 Y86.762 E.20354
G1 X19.379 Y84.836 E.20351
G1 X21.12 Y83.429 E.20354
G1 X21.292 Y83.385 E.01614
G1 E-2.24 F4200
;WIPE_START
G1 F6240
G1 X21.35 Y83.371 E-.03815
G1 X22.747 Y83.013 E-.92185
;WIPE_END
G1 Z.55 F7800
G1 X143.345 Y114.903
G1 Z.35
G1 E3.2 F2400
;TYPE:Support material
G1 F1800
G1 X143.835 Y115.905 E.10142
G1 X144.136 Y116.979 E.10142
G1 X144.237 Y118.09 E.10144
G1 X144.136 Y119.201 E.10144
G1 X143.835 Y120.275 E.10142
G1 X143.345 Y121.277 E.10142
G1 X142.69 Y122.161 E.10004
G1 X141.852 Y122.943 E.10422
G1 X140.927 Y123.536 E.09991
G1 X139.894 Y123.957 E.10143
G1 X138.802 Y124.185 E.10144
G1 X137.687 Y124.21 E.10141
G1 X136.586 Y124.034 E.10138
G1 X135.535 Y123.661 E.10141
G1 X134.569 Y123.104 E.10139
G1 X133.72 Y122.381 E.1014
G1 X133.015 Y121.517 E.1014
G1 X132.505 Y120.585 E.0966
G1 X132.137 Y119.479 E.10599
G1 X131.984 Y118.376 E.10126
G1 X131.984 Y117.804 E.05201
G1 X132.137 Y116.701 E.10126
G1 X132.285 Y116.178 E.04942
G1 X132.505 Y115.594 E.05675
G1 X133.115 Y114.54 E.11073
G1 X143.076 Y114.54 E.90575
G1 X143.289 Y114.828 E.03257
G1 X143.289 Y114.828 F7800
G1 X143.311 Y120.705
G1 F1800
G1 X143.311 Y116.12 E.41691
G1 X142.862 Y115.196 E.09341
G1 X142.792 Y115.102 E.01066
G1 X142.617 Y115.102 E.01591
G1 X142.617 Y121.314 E.56485
G1 X141.923 Y122.116 E.09644
G1 X141.923 Y115.102 E.63778
G1 X141.228 Y115.102 E.0632
G1 X141.228 Y122.675 E.68861
G1 X140.534 Y123.089 E.07348
G1 X140.534 Y115.102 E.72625
G1 X139.84 Y115.102 E.06311
G1 X139.84 Y123.372 E.75199
G1 X139.145 Y123.539 E.06499
G1 X139.145 Y115.102 E.76717
G1 X138.451 Y115.102 E.06311
G1 X138.451 Y123.63 E.77545
G1 X137.757 Y123.646 E.06312
G1 X137.757 Y115.102 E.7769
G1 X137.062 Y115.102 E.0632
G1 X137.062 Y123.541 E.76735
G1 X136.368 Y123.36 E.06522
G1 X136.368 Y115.102 E.7509
G1 X135.674 Y115.102 E.06311
G1 X135.674 Y123.092 E.72653
G1 X134.979 Y122.692 E.07292
G1 X134.979 Y115.102 E.69016
G1 X134.285 Y115.102 E.06311
G1 X134.285 Y122.124 E.63851
G1 X133.591 Y121.333 E.09568
G1 X133.591 Y115.102 E.56658
G1 X133.416 Y115.102 E.01591
G1 X132.896 Y116.151 E.10646
G1 X132.896 Y120.715 E.415
G1 E-2.24 F4200
;WIPE_START
G1 F6240
G1 X132.896 Y119.214 E-.96
;WIPE_END
G1 Z.55 F7800
G1 X127.666 Y114.903
G1 Z.35
G1 E3.2 F2400
G1 F1800
G1 X128.156 Y115.905 E.10142
G1 X128.457 Y116.979 E.10142
G1 X128.558 Y118.09 E.10144
G1 X128.457 Y119.201 E.10144
G1 X128.156 Y120.275 E.10142
G1 X127.666 Y121.277 E.10142
G1 X127.011 Y122.161 E.10004
G1 X126.173 Y122.943 E.10422
G1 X125.248 Y123.536 E.09991
G1 X124.215 Y123.957 E.10143
G1 X123.123 Y124.185 E.10144
G1 X122.008 Y124.21 E.10141
G1 X120.907 Y124.034 E.10138
G1 X119.856 Y123.661 E.10141
G1 X118.89 Y123.104 E.10139
G1 X118.041 Y122.381 E.1014
G1 X117.336 Y121.517 E.1014
G1 X116.826 Y120.585 E.0966
G1 X116.458 Y119.479 E.10599
G1 X116.306 Y118.376 E.10124
G1 X116.306 Y117.804 E.05201
G1 X116.458 Y116.701 E.10124
G1 X116.606 Y116.178 E.04942
G1 X116.826 Y115.594 E.05675
G1 X117.437 Y114.54 E.11078
G1 X127.397 Y114.54 E.90566
G1 X127.61 Y114.828 E.03257
G1 X127.61 Y114.828 F7800
G1 X127.342 Y121.242
G1 F1800
G1 X127.342 Y115.521 E.52021
G1 X127.113 Y115.102 E.04342
G1 X126.647 Y115.102 E.04237
G1 X126.647 Y121.707 E.60059
G1 X125.953 Y122.383 E.08809
G1 X125.953 Y115.102 E.66206
G1 X125.259 Y115.102 E.06311
G1 X125.259 Y122.861 E.70552
G1 X124.988 Y123.035 E.02928
G1 X124.565 Y123.207 E.04152
G1 X124.565 Y115.102 E.73698
G1 X123.87 Y115.102 E.0632
G1 X123.87 Y123.455 E.75953
G1 X123.176 Y123.599 E.06445
G1 X123.176 Y115.102 E.77263
G1 X122.482 Y115.102 E.06311
G1 X122.482 Y123.637 E.77608
G1 X121.787 Y123.605 E.06326
G1 X121.787 Y115.102 E.77317
G1 X121.093 Y115.102 E.06311
G1 X121.093 Y123.494 E.76308
G1 X120.399 Y123.257 E.06668
G1 X120.399 Y115.102 E.74153
G1 X119.704 Y115.102 E.0632
G1 X119.704 Y122.924 E.71125
G1 X119.01 Y122.468 E.07551
G1 X119.01 Y115.102 E.66979
G1 X118.316 Y115.102 E.06311
G1 X118.316 Y121.828 E.61159
G1 X117.621 Y120.867 E.10784
G1 X117.621 Y115.313 E.50502
G1 X117.141 Y116.355 E.10432
G1 X116.927 Y117.265 E.085
G1 X116.927 Y120.055 E.25369
G1 E-2.24 F4200
;WIPE_START
G1 F6240
G1 X116.927 Y118.554 E-.96
;WIPE_END
G1 Z.55 F7800
G1 X111.735 Y114.903
G1 Z.35
G1 E3.2 F2400
G1 F1800
G1 X112.225 Y115.905 E.10142
G1 X112.526 Y116.979 E.10142
G1 X112.627 Y118.088 E.10126
G1 X112.525 Y119.202 E.10172
G1 X112.225 Y120.275 E.10131
G1 X111.735 Y121.277 E.10142
G1 X111.071 Y122.173 E.10141
G1 X110.256 Y122.935 E.10145
G1 X109.316 Y123.536 E.10145
G1 X108.284 Y123.957 E.10135
G1 X107.192 Y124.185 E.10144
G1 X106.077 Y124.21 E.10141
G1 X104.976 Y124.034 E.10138
G1 X103.925 Y123.661 E.10141
G1 X102.959 Y123.104 E.10139
G1 X102.109 Y122.381 E.10147
G1 X101.405 Y121.517 E.10134
G1 X100.895 Y120.585 E.0966
G1 X100.527 Y119.479 E.10599
G1 X100.374 Y118.376 E.10126
G1 X100.374 Y117.804 E.05201
G1 X100.527 Y116.701 E.10126
G1 X100.675 Y116.178 E.04942
G1 X100.895 Y115.594 E.05675
G1 X101.505 Y114.54 E.11073
G1 X111.466 Y114.54 E.90575
G1 X111.679 Y114.828 E.03257
G1 X111.679 Y114.828 F7800
G1 X111.372 Y121.293
G1 F1800
G1 X111.372 Y115.443 E.53194
G1 X111.182 Y115.102 E.0355
G1 X110.678 Y115.102 E.04583
G1 X110.678 Y121.758 E.60523
G1 X109.984 Y122.419 E.08715
G1 X109.984 Y115.102 E.66533
G1 X109.289 Y115.102 E.0632
G1 X109.289 Y122.885 E.7077
G1 X109.057 Y123.035 E.02512
G1 X108.595 Y123.223 E.04535
G1 X108.595 Y115.102 E.73844
G1 X107.901 Y115.102 E.06311
G1 X107.901 Y123.462 E.76017
G1 X107.206 Y123.607 E.06456
G1 X107.206 Y115.102 E.77336
G1 X106.512 Y115.102 E.06311
G1 X106.512 Y123.638 E.77617
G1 X105.818 Y123.599 E.0632
G1 X105.818 Y115.102 E.77263
G1 X105.124 Y115.102 E.06311
G1 X105.124 Y123.488 E.76254
G1 X104.429 Y123.243 E.06701
G1 X104.429 Y115.102 E.74026
G1 X103.735 Y115.102 E.06311
G1 X103.735 Y122.902 E.70925
G1 X103.041 Y122.435 E.07606
G1 X103.041 Y115.102 E.66679
G1 X102.346 Y115.102 E.0632
G1 X102.346 Y121.782 E.60741
G1 X101.874 Y121.201 E.06807
G1 X101.652 Y120.797 E.04192
G1 X101.652 Y115.383 E.49229
G1 X101.21 Y116.355 E.09709
G1 X100.982 Y117.34 E.09193
G1 X100.958 Y119.953 E.23761
G1 E-2.24 F4200
;WIPE_START
G1 F6240
G1 X100.972 Y118.451 E-.96
;WIPE_END
G1 Z.55 F7800
G1 X97.959 Y114.903
G1 Z.35
G1 E3.2 F2400
G1 F1800
G1 X98.449 Y115.905 E.10142
G1 X98.75 Y116.979 E.10142
G1 X98.851 Y118.088 E.10126
G1 X98.75 Y119.202 E.10171
G1 X98.449 Y120.275 E.10133
G1 X97.959 Y121.277 E.10142
G1 X97.295 Y122.173 E.10141
G1 X96.48 Y122.935 E.10145
G1 X95.541 Y123.536 E.10137
G1 X94.508 Y123.957 E.10143
G1 X93.416 Y124.185 E.10144
G1 X92.301 Y124.21 E.10141
G1 X91.2 Y124.034 E.10138
G1 X90.149 Y123.661 E.10141
G1 X89.183 Y123.104 E.10139
G1 X88.334 Y122.381 E.1014
G1 X87.63 Y121.517 E.10134
G1 X87.119 Y120.585 E.09665
G1 X86.751 Y119.479 E.10599
G1 X86.599 Y118.376 E.10124
G1 X86.599 Y117.804 E.05201
G1 X86.751 Y116.701 E.10124
G1 X86.9 Y116.178 E.04945
G1 X87.119 Y115.594 E.05671
G1 X87.73 Y114.54 E.11078
G1 X97.69 Y114.54 E.90566
G1 X97.903 Y114.828 E.03257
G1 X97.903 Y114.828 F7800
G1 X98.18 Y120.184
G1 F1800
G1 X98.18 Y117.03 E.28679
G1 X97.921 Y116.106 E.08726
G1 X97.486 Y115.216 E.09008
G1 X97.486 Y120.963 E.52257
G1 X96.792 Y121.874 E.10414
G1 X96.792 Y115.102 E.61578
G1 X96.097 Y115.102 E.0632
G1 X96.097 Y122.512 E.67379
G1 X95.403 Y122.956 E.07491
G1 X95.403 Y115.102 E.71416
G1 X94.709 Y115.102 E.06311
G1 X94.709 Y123.268 E.74253
G1 X94.014 Y123.486 E.06623
G1 X94.014 Y115.102 E.76235
G1 X93.32 Y115.102 E.06311
G1 X93.32 Y123.624 E.7749
G1 X92.626 Y123.64 E.06312
G1 X92.626 Y115.102 E.77636
G1 X91.931 Y115.102 E.0632
G1 X91.931 Y123.582 E.77108
G1 X91.237 Y123.45 E.06424
G1 X91.237 Y115.102 E.75908
G1 X90.543 Y115.102 E.06311
G1 X90.543 Y123.204 E.73671
G1 X90.385 Y123.148 E.01524
G1 X89.848 Y122.839 E.05634
G1 X89.848 Y115.102 E.70352
G1 X89.154 Y115.102 E.06311
G1 X89.154 Y122.341 E.65824
G1 X88.46 Y121.646 E.08931
G1 X88.46 Y115.102 E.59504
G1 X88.03 Y115.102 E.0391
G1 X87.766 Y115.585 E.05005
G1 X87.766 Y121.18 E.50875
G1 E-2.24 F4200
;WIPE_START
G1 F6240
G1 X87.766 Y119.679 E-.96
;WIPE_END
G1 Z.55 F7800
G1 X70.277 Y114.903
G1 Z.35
G1 E3.2 F2400
G1 F1800
G1 X70.892 Y116.16 E.12725
G1 X71.813 Y114.54 E.16945
G1 X81.773 Y114.54 E.90566
G1 X82.042 Y114.903 E.04108
G1 X82.533 Y115.905 E.10146
G1 X82.833 Y116.979 E.1014
G1 X82.935 Y118.09 E.10145
G1 X82.833 Y119.201 E.10145
G1 X82.533 Y120.275 E.1014
G1 X82.042 Y121.277 E.10146
G1 X81.388 Y122.161 E.09999
G1 X80.55 Y122.943 E.10422
G1 X79.624 Y123.536 E.09999
G1 X78.591 Y123.957 E.10143
G1 X77.5 Y124.185 E.10135
G1 X76.385 Y124.21 E.10141
G1 X75.283 Y124.034 E.10147
G1 X74.232 Y123.661 E.10141
G1 X73.266 Y123.104 E.10139
G1 X72.417 Y122.381 E.1014
G1 X71.713 Y121.517 E.10134
G1 X70.892 Y120.02 E.15525
G1 X70.277 Y121.277 E.12725
G1 X69.623 Y122.161 E.09999
G1 X68.785 Y122.943 E.10422
G1 X67.859 Y123.536 E.09999
G1 X66.827 Y123.957 E.10135
G1 X65.735 Y124.185 E.10144
G1 X64.62 Y124.21 E.10141
G1 X63.518 Y124.034 E.10147
G1 X62.468 Y123.661 E.10132
G1 X61.501 Y123.104 E.10147
G1 X60.652 Y122.381 E.1014
G1 X59.948 Y121.517 E.10134
G1 X59.437 Y120.585 E.09665
G1 X59.069 Y119.479 E.10599
G1 X58.917 Y118.376 E.10124
G1 X58.917 Y117.804 E.05201
G1 X59.069 Y116.701 E.10124
G1 X59.218 Y116.178 E.04945
G1 X59.437 Y115.594 E.05671
G1 X60.048 Y114.54 E.11078
G1 X70.008 Y114.54 E.90566
G1 X70.222 Y114.828 E.03263
G1 E-2.24 F4200
;WIPE_START
G1 F6240
G1 X70.008 Y114.54 E-.22943
G1 X68.865 Y114.54 E-.73057
;WIPE_END
G1 Z.55 F7800
G1 X82.211 Y120.292
G1 Z.35
G1 E3.2 F2400
G1 F1800
G1 X82.211 Y116.842 E.31371
G1 X82.005 Y116.106 E.0695
G1 X81.517 Y115.138 E.09857
G1 X81.517 Y121.041 E.53676
G1 X80.822 Y121.923 E.10211
G1 X80.822 Y115.102 E.62023
G1 X80.128 Y115.102 E.06311
G1 X80.128 Y122.546 E.67688
G1 X79.434 Y122.99 E.07491
G1 X79.434 Y115.102 E.71725
G1 X78.739 Y115.102 E.0632
G1 X78.739 Y123.29 E.74453
G1 X78.045 Y123.497 E.06585
G1 X78.045 Y115.102 E.76335
G1 X77.351 Y115.102 E.06311
G1 X77.351 Y123.625 E.77499
G1 X76.656 Y123.642 E.06321
G1 X76.656 Y115.102 E.77654
G1 X75.962 Y115.102 E.06311
G1 X75.962 Y123.573 E.77026
G1 X75.268 Y123.432 E.06439
G1 X75.268 Y115.102 E.75744
G1 X74.573 Y115.102 E.0632
G1 X74.573 Y123.185 E.73498
G1 X74.469 Y123.148 E.01004
G1 X73.879 Y122.808 E.06192
G1 X73.879 Y115.102 E.7007
G1 X73.185 Y115.102 E.06311
G1 X73.185 Y122.296 E.65415
G1 X72.49 Y121.581 E.09067
G1 X72.49 Y115.102 E.58913
G1 X72.113 Y115.102 E.03428
G1 X71.796 Y115.681 E.06002
G1 X71.796 Y120.499 E.4381
G1 X71.102 Y119.233 E.13128
G1 X71.102 Y116.947 E.20787
G1 X70.864 Y117.381 E.04501
G1 X70.407 Y116.448 E.09447
G1 X70.407 Y119.731 E.29852
G1 X69.713 Y121.093 E.139
G1 X69.713 Y115.102 E.54476
G1 X69.019 Y115.102 E.06311
G1 X69.019 Y121.96 E.6236
G1 X68.325 Y122.57 E.08402
G1 X68.325 Y115.102 E.67906
G1 X67.63 Y115.102 E.0632
G1 X67.63 Y123.015 E.71953
G1 X66.936 Y123.305 E.06839
G1 X66.936 Y115.102 E.7459
G1 X66.242 Y115.102 E.06311
G1 X66.242 Y123.505 E.76408
G1 X65.547 Y123.626 E.06415
G1 X65.547 Y115.102 E.77508
G1 X64.853 Y115.102 E.06311
G1 X64.853 Y123.642 E.77654
G1 X64.159 Y123.567 E.06347
G1 X64.159 Y115.102 E.76972
G1 X63.464 Y115.102 E.0632
G1 X63.464 Y123.418 E.75617
G1 X62.77 Y123.172 E.06695
G1 X62.77 Y115.102 E.7338
G1 X62.076 Y115.102 E.06311
G1 X62.076 Y122.786 E.6987
G1 X61.381 Y122.263 E.07909
G1 X61.381 Y115.102 E.65115
G1 X60.687 Y115.102 E.06311
G1 X60.687 Y121.534 E.58486
G1 X60.416 Y121.201 E.03904
G1 X59.993 Y120.429 E.08004
G1 X59.993 Y115.166 E.47856
G1 E-2.24 F4200
;WIPE_START
G1 F6240
G1 X59.993 Y116.667 E-.96
;WIPE_END
G1 Z.55 F7800
G1 X57.213 Y114.903
G1 Z.35
G1 E3.2 F2400
G1 F1800
G1 X57.703 Y115.905 E.10142
G1 X58.004 Y116.979 E.10142
G1 X58.105 Y118.088 E.10126
G1 X58.004 Y119.202 E.10171
G1 X57.703 Y120.275 E.10133
G1 X57.213 Y121.277 E.10142
G1 X56.549 Y122.173 E.10141
G1 X55.734 Y122.935 E.10145
G1 X54.795 Y123.536 E.10137
G1 X53.762 Y123.957 E.10143
G1 X52.67 Y124.185 E.10144
G1 X51.555 Y124.21 E.10141
G1 X50.454 Y124.034 E.10138
G1 X49.403 Y123.661 E.10141
G1 X48.437 Y123.104 E.10139
G1 X47.588 Y122.381 E.1014
G1 X46.884 Y121.517 E.10134
G1 X46.373 Y120.585 E.09665
G1 X46.005 Y119.479 E.10599
G1 X45.853 Y118.376 E.10124
G1 X45.853 Y117.804 E.05201
G1 X46.005 Y116.701 E.10124
G1 X46.154 Y116.178 E.04945
G1 X46.373 Y115.594 E.05671
G1 X46.984 Y114.54 E.11078
G1 X56.944 Y114.54 E.90566
M73 P1 R112
M73 Q1 S112
G1 X57.157 Y114.828 E.03257
G1 X57.157 Y114.828 F7800
G1 X57.215 Y120.632
G1 F1800
G1 X57.215 Y116.248 E.39864
G1 X56.73 Y115.197 E.10525
G1 X56.661 Y115.102 E.01068
G1 X56.521 Y115.102 E.01273
G1 X56.521 Y121.266 E.56049
G1 X55.827 Y122.079 E.0972
G1 X55.827 Y115.102 E.63442
G1 X55.132 Y115.102 E.0632
G1 X55.132 Y122.652 E.68652
G1 X54.438 Y123.074 E.07386
G1 X54.438 Y115.102 E.72489
G1 X53.744 Y115.102 E.06311
G1 X53.744 Y123.357 E.75062
G1 X53.049 Y123.531 E.06515
G1 X53.049 Y115.102 E.76645
G1 X52.355 Y115.102 E.06311
G1 X52.355 Y123.629 E.77536
G1 X51.661 Y123.645 E.06312
G1 X51.661 Y115.102 E.77681
G1 X50.966 Y115.102 E.0632
G1 X50.966 Y123.546 E.76781
G1 X50.272 Y123.373 E.06504
G1 X50.272 Y115.102 E.75208
G1 X49.578 Y115.102 E.06311
G1 X49.578 Y123.113 E.72844
G1 X48.884 Y122.712 E.07288
G1 X48.884 Y115.102 E.69197
G1 X48.189 Y115.102 E.0632
G1 X48.189 Y122.155 E.64133
G1 X47.495 Y121.377 E.0948
G1 X47.495 Y115.102 E.57058
G1 X47.284 Y115.102 E.01919
G1 X46.801 Y116.055 E.09715
G1 X46.801 Y120.781 E.42973
G1 E-2.24 F4200
;WIPE_START
G1 F6240
G1 X46.801 Y119.28 E-.96
;WIPE_END
G1 Z.55 F7800
G1 X40.679 Y114.903
G1 Z.35
G1 E3.2 F2400
G1 F1800
